teeny/solid/camera.svg

<svg width="15" height="15" viewBox="0 0 15 15" fill="none" xmlns="http://www.w3.org/2000/svg">
<path d="M2 1H7V2L2 2V1Z" fill="black"/>
<path d="M8 8.5C8 7.67157 8.67157 7 9.5 7C10.3284 7 11 7.67157 11 8.5C11 9.32843 10.3284 10 9.5 10C8.67157 10 8 9.32843 8 8.5Z" fill="black"/>
<path fill-rule="evenodd" clip-rule="evenodd" d="M0 12.5C0 13.3284 0.671574 14 1.5 14L13.5 14C14.3284 14 15 13.3284 15 12.5L15 4.5C15 3.67158 14.3284 3 13.5 3H1.5C0.671574 3 0 3.67157 0 4.5V12.5ZM9.5 6C8.11929 6 7 7.11929 7 8.5C7 9.88071 8.11929 11 9.5 11C10.8807 11 12 9.88071 12 8.5C12 7.11929 10.8807 6 9.5 6Z" fill="black"/>
</svg>

<svg viewBox="0 0 15 15" xmlns="http://www.w3.org/2000/svg"><g><path d="M2 1h5v1H2V1Z"/><path d="M8 8.5C8 7.67 8.67 7 9.5 7c.82 0 1.5.67 1.5 1.5 0 .82-.68 1.5-1.5 1.5C8.67 10 8 9.32 8 8.5Z"/><path fill-rule="evenodd" d="M0 12.5c0 .82.67 1.5 1.5 1.5h12c.82 0 1.5-.68 1.5-1.5v-8c0-.83-.68-1.5-1.5-1.5h-12C.67 3 0 3.67 0 4.5v8ZM9.5 6C8.11 6 7 7.11 7 8.5 7 9.88 8.11 11 9.5 11c1.38 0 2.5-1.12 2.5-2.5C12 7.11 10.88 6 9.5 6Z"/></g></svg>
